src/pos-icons/credit-card-plus-outline.svg

<svg height="24" viewBox="0 0 24 24" width="24" xmlns="http://www.w3.org/2000/svg"><path d="m21 18h3v2h-3v3h-2v-3h-3v-2h3v-3h2zm-2-10v-2h-16v2zm0 4h-16v6h11v2h-11c-1.11 0-2-.9-2-2v-12c0-1.11.89-2 2-2h16a2 2 0 0 1 2 2v7h-2z"/></svg>

<?xml version="1.0" encoding="UTF-8"?><!DOCTYPE svg PUBLIC "-//W3C//DTD SVG 1.1//EN" "http://www.w3.org/Graphics/SVG/1.1/DTD/svg11.dtd"><svg xmlns="http://www.w3.org/2000/svg" xmlns:xlink="http://www.w3.org/1999/xlink" version="1.1" id="mdi-credit-card-plus-outline" width="24" height="24" viewBox="0 0 24 24"><path d="M21,18H24V20H21V23H19V20H16V18H19V15H21V18M19,8V6H3V8H19M19,12H3V18H14V20H3C1.89,20 1,19.1 1,18V6C1,4.89 1.89,4 3,4H19A2,2 0 0,1 21,6V13H19V12Z" /></svg>
